images/3235236.svg

<?xml version="1.0" encoding="UTF-8"?>
<svg xmlns="http://www.w3.org/2000/svg" xmlns:xlink="http://www.w3.org/1999/xlink" width="300pt" height="300pt" viewBox="0 0 300 300" version="1.1">
<defs>
<g>
<symbol overflow="visible" id="glyph0-0">
<path style="stroke:none;" d="M 0.59375 2.125 L 0.59375 -8.46875 L 6.59375 -8.46875 L 6.59375 2.125 Z M 1.265625 1.453125 L 5.9375 1.453125 L 5.9375 -7.78125 L 1.265625 -7.78125 Z M 1.265625 1.453125 "/>
</symbol>
<symbol overflow="visible" id="glyph0-1">
<path style="stroke:none;" d="M 1.171875 -8.75 L 2.765625 -8.75 L 6.65625 -1.4375 L 6.65625 -8.75 L 7.796875 -8.75 L 7.796875 0 L 6.203125 0 L 2.328125 -7.3125 L 2.328125 0 L 1.171875 0 Z M 1.171875 -8.75 "/>
</symbol>
<symbol overflow="visible" id="glyph0-2">
<path style="stroke:none;" d="M 4.734375 -7.953125 C 3.867188 -7.953125 3.179688 -7.628906 2.671875 -6.984375 C 2.171875 -6.347656 1.921875 -5.472656 1.921875 -4.359375 C 1.921875 -3.265625 2.171875 -2.394531 2.671875 -1.75 C 3.179688 -1.113281 3.867188 -0.796875 4.734375 -0.796875 C 5.585938 -0.796875 6.265625 -1.113281 6.765625 -1.75 C 7.273438 -2.394531 7.53125 -3.265625 7.53125 -4.359375 C 7.53125 -5.472656 7.273438 -6.347656 6.765625 -6.984375 C 6.265625 -7.628906 5.585938 -7.953125 4.734375 -7.953125 Z M 4.734375 -8.90625 C 5.953125 -8.90625 6.925781 -8.492188 7.65625 -7.671875 C 8.394531 -6.847656 8.765625 -5.742188 8.765625 -4.359375 C 8.765625 -2.984375 8.394531 -1.882812 7.65625 -1.0625 C 6.925781 -0.238281 5.953125 0.171875 4.734375 0.171875 C 3.503906 0.171875 2.519531 -0.238281 1.78125 -1.0625 C 1.039062 -1.882812 0.671875 -2.984375 0.671875 -4.359375 C 0.671875 -5.742188 1.039062 -6.847656 1.78125 -7.671875 C 2.519531 -8.492188 3.503906 -8.90625 4.734375 -8.90625 Z M 4.734375 -8.90625 "/>
</symbol>
<symbol overflow="visible" id="glyph0-3">
<path style="stroke:none;" d="M 1.171875 -8.75 L 6.203125 -8.75 L 6.203125 -7.75 L 2.359375 -7.75 L 2.359375 -5.171875 L 5.828125 -5.171875 L 5.828125 -4.171875 L 2.359375 -4.171875 L 2.359375 0 L 1.171875 0 Z M 1.171875 -8.75 "/>
</symbol>
</g>
</defs>
<g id="surface37233">
<rect x="0" y="0" width="300" height="300" style="fill:rgb(100%,100%,100%);fill-opacity:1;stroke:none;"/>
<path style="fill:none;stroke-width:1.2;stroke-linecap:butt;stroke-linejoin:miter;stroke:rgb(0%,0%,0%);stroke-opacity:1;stroke-miterlimit:10;" d="M 35.25 170.617188 L 65.648438 168.863281 "/>
<path style="fill:none;stroke-width:1.2;stroke-linecap:butt;stroke-linejoin:miter;stroke:rgb(0%,0%,0%);stroke-opacity:1;stroke-miterlimit:10;" d="M 65.648438 168.863281 L 74.007812 181.585938 "/>
<path style="fill:none;stroke-width:1.2;stroke-linecap:butt;stroke-linejoin:miter;stroke:rgb(0%,0%,100%);stroke-opacity:1;stroke-miterlimit:10;" d="M 74.007812 181.585938 L 82.367188 194.3125 "/>
<path style="fill:none;stroke-width:1.2;stroke-linecap:butt;stroke-linejoin:miter;stroke:rgb(0%,0%,0%);stroke-opacity:1;stroke-miterlimit:10;" d="M 73.308594 167.476562 L 79.992188 177.652344 "/>
<path style="fill:none;stroke-width:1.2;stroke-linecap:butt;stroke-linejoin:miter;stroke:rgb(0%,0%,100%);stroke-opacity:1;stroke-miterlimit:10;" d="M 79.992188 177.652344 L 86.679688 187.832031 "/>
<path style="fill:none;stroke-width:1.2;stroke-linecap:butt;stroke-linejoin:miter;stroke:rgb(0%,0%,0%);stroke-opacity:1;stroke-miterlimit:10;" d="M 79.328125 141.660156 L 65.648438 168.863281 "/>
<path style="fill:none;stroke-width:1.2;stroke-linecap:butt;stroke-linejoin:miter;stroke:rgb(0%,0%,100%);stroke-opacity:1;stroke-miterlimit:10;" d="M 82.367188 194.3125 L 97.5625 193.433594 "/>
<path style="fill:none;stroke-width:1.2;stroke-linecap:butt;stroke-linejoin:miter;stroke:rgb(0%,0%,0%);stroke-opacity:1;stroke-miterlimit:10;" d="M 97.5625 193.433594 L 112.761719 192.558594 "/>
<path style=" stroke:none;fill-rule:nonzero;fill:rgb(100%,100%,100%);fill-opacity:1;" d="M 78.367188 187.3125 L 87.367188 187.3125 L 87.367188 201.3125 L 78.367188 201.3125 Z M 78.367188 187.3125 "/>
<g style="fill:rgb(0%,0%,100%);fill-opacity:1;">
  <use xlink:href="#glyph0-1" x="78.367188" y="198.451172"/>
</g>
<path style="fill:none;stroke-width:1.2;stroke-linecap:butt;stroke-linejoin:miter;stroke:rgb(0%,0%,0%);stroke-opacity:1;stroke-miterlimit:10;" d="M 112.761719 192.558594 L 129.480469 218.003906 "/>
<path style="fill:none;stroke-width:1.2;stroke-linecap:butt;stroke-linejoin:miter;stroke:rgb(0%,0%,0%);stroke-opacity:1;stroke-miterlimit:10;" d="M 120.421875 191.167969 L 133.796875 211.527344 "/>
<path style="fill:none;stroke-width:1.2;stroke-linecap:butt;stroke-linejoin:miter;stroke:rgb(0%,0%,0%);stroke-opacity:1;stroke-miterlimit:10;" d="M 126.441406 165.355469 L 112.761719 192.558594 "/>
<path style="fill:none;stroke-width:1.2;stroke-linecap:butt;stroke-linejoin:miter;stroke:rgb(0%,0%,0%);stroke-opacity:1;stroke-miterlimit:10;" d="M 129.480469 218.003906 L 144.679688 217.128906 "/>
<path style="fill:none;stroke-width:1.2;stroke-linecap:butt;stroke-linejoin:miter;stroke:rgb(0%,0%,100%);stroke-opacity:1;stroke-miterlimit:10;" d="M 144.679688 217.128906 L 159.878906 216.25 "/>
<path style="fill:none;stroke-width:1.2;stroke-linecap:butt;stroke-linejoin:miter;stroke:rgb(0%,0%,100%);stroke-opacity:1;stroke-miterlimit:10;" d="M 159.878906 216.25 L 166.71875 202.648438 "/>
<path style="fill:none;stroke-width:1.2;stroke-linecap:butt;stroke-linejoin:miter;stroke:rgb(0%,0%,0%);stroke-opacity:1;stroke-miterlimit:10;" d="M 166.71875 202.648438 L 173.558594 189.050781 "/>
<path style="fill:none;stroke-width:1.2;stroke-linecap:butt;stroke-linejoin:miter;stroke:rgb(0%,0%,100%);stroke-opacity:1;stroke-miterlimit:10;" d="M 154.84375 210.3125 L 160.316406 199.429688 "/>
<path style="fill:none;stroke-width:1.2;stroke-linecap:butt;stroke-linejoin:miter;stroke:rgb(0%,0%,0%);stroke-opacity:1;stroke-miterlimit:10;" d="M 160.316406 199.429688 L 165.789062 188.550781 "/>
<path style=" stroke:none;fill-rule:nonzero;fill:rgb(100%,100%,100%);fill-opacity:1;" d="M 155.878906 209.25 L 164.878906 209.25 L 164.878906 223.25 L 155.878906 223.25 Z M 155.878906 209.25 "/>
<g style="fill:rgb(0%,0%,100%);fill-opacity:1;">
  <use xlink:href="#glyph0-1" x="155.878906" y="220.388672"/>
</g>
<path style="fill:none;stroke-width:1.2;stroke-linecap:butt;stroke-linejoin:miter;stroke:rgb(0%,0%,0%);stroke-opacity:1;stroke-miterlimit:10;" d="M 173.558594 189.050781 L 165.199219 176.324219 "/>
<path style="fill:none;stroke-width:1.2;stroke-linecap:butt;stroke-linejoin:miter;stroke:rgb(0%,0%,100%);stroke-opacity:1;stroke-miterlimit:10;" d="M 165.199219 176.324219 L 156.839844 163.601562 "/>
<path style="fill:none;stroke-width:1.2;stroke-linecap:butt;stroke-linejoin:miter;stroke:rgb(0%,0%,0%);stroke-opacity:1;stroke-miterlimit:10;" d="M 173.558594 189.050781 L 188.757812 188.171875 "/>
<path style="fill:none;stroke-width:1.2;stroke-linecap:butt;stroke-linejoin:miter;stroke:rgb(0%,0%,100%);stroke-opacity:1;stroke-miterlimit:10;" d="M 188.757812 188.171875 L 203.957031 187.292969 "/>
<path style="fill:none;stroke-width:1.2;stroke-linecap:butt;stroke-linejoin:miter;stroke:rgb(0%,0%,100%);stroke-opacity:1;stroke-miterlimit:10;" d="M 156.839844 163.601562 L 141.640625 164.476562 "/>
<path style="fill:none;stroke-width:1.2;stroke-linecap:butt;stroke-linejoin:miter;stroke:rgb(0%,0%,0%);stroke-opacity:1;stroke-miterlimit:10;" d="M 141.640625 164.476562 L 126.441406 165.355469 "/>
<path style="fill:none;stroke-width:1.2;stroke-linecap:butt;stroke-linejoin:miter;stroke:rgb(0%,0%,100%);stroke-opacity:1;stroke-miterlimit:10;" d="M 154.210938 170.929688 L 142.054688 171.628906 "/>
<path style="fill:none;stroke-width:1.2;stroke-linecap:butt;stroke-linejoin:miter;stroke:rgb(0%,0%,0%);stroke-opacity:1;stroke-miterlimit:10;" d="M 142.054688 171.628906 L 129.894531 172.332031 "/>
<path style=" stroke:none;fill-rule:nonzero;fill:rgb(100%,100%,100%);fill-opacity:1;" d="M 152.839844 156.601562 L 161.839844 156.601562 L 161.839844 170.601562 L 152.839844 170.601562 Z M 152.839844 156.601562 "/>
<g style="fill:rgb(0%,0%,100%);fill-opacity:1;">
  <use xlink:href="#glyph0-1" x="152.839844" y="167.740234"/>
</g>
<path style="fill:none;stroke-width:1.2;stroke-linecap:butt;stroke-linejoin:miter;stroke:rgb(0%,0%,0%);stroke-opacity:1;stroke-miterlimit:10;" d="M 126.441406 165.355469 L 118.082031 152.632812 "/>
<path style="fill:none;stroke-width:1.2;stroke-linecap:butt;stroke-linejoin:miter;stroke:rgb(0%,0%,100%);stroke-opacity:1;stroke-miterlimit:10;" d="M 118.082031 152.632812 L 109.722656 139.90625 "/>
<path style="fill:none;stroke-width:1.2;stroke-linecap:butt;stroke-linejoin:miter;stroke:rgb(0%,0%,100%);stroke-opacity:1;stroke-miterlimit:10;" d="M 109.722656 139.90625 L 94.527344 140.785156 "/>
<path style="fill:none;stroke-width:1.2;stroke-linecap:butt;stroke-linejoin:miter;stroke:rgb(0%,0%,0%);stroke-opacity:1;stroke-miterlimit:10;" d="M 94.527344 140.785156 L 79.328125 141.660156 "/>
<path style="fill:none;stroke-width:1.2;stroke-linecap:butt;stroke-linejoin:miter;stroke:rgb(0%,0%,100%);stroke-opacity:1;stroke-miterlimit:10;" d="M 109.722656 139.90625 L 116.5625 126.304688 "/>
<path style="fill:none;stroke-width:1.2;stroke-linecap:butt;stroke-linejoin:miter;stroke:rgb(0%,0%,0%);stroke-opacity:1;stroke-miterlimit:10;" d="M 116.5625 126.304688 L 123.402344 112.707031 "/>
<path style=" stroke:none;fill-rule:nonzero;fill:rgb(100%,100%,100%);fill-opacity:1;" d="M 105.722656 132.90625 L 114.722656 132.90625 L 114.722656 146.90625 L 105.722656 146.90625 Z M 105.722656 132.90625 "/>
<g style="fill:rgb(0%,0%,100%);fill-opacity:1;">
  <use xlink:href="#glyph0-1" x="105.722656" y="144.044922"/>
</g>
<path style="fill:none;stroke-width:1.2;stroke-linecap:butt;stroke-linejoin:miter;stroke:rgb(0%,0%,0%);stroke-opacity:1;stroke-miterlimit:10;" d="M 82.320312 139.695312 L 73.960938 126.972656 "/>
<path style="fill:none;stroke-width:1.2;stroke-linecap:butt;stroke-linejoin:miter;stroke:rgb(100%,0%,0%);stroke-opacity:1;stroke-miterlimit:10;" d="M 73.960938 126.972656 L 65.601562 114.246094 "/>
<path style="fill:none;stroke-width:1.2;stroke-linecap:butt;stroke-linejoin:miter;stroke:rgb(0%,0%,0%);stroke-opacity:1;stroke-miterlimit:10;" d="M 76.332031 143.628906 L 67.972656 130.90625 "/>
<path style="fill:none;stroke-width:1.2;stroke-linecap:butt;stroke-linejoin:miter;stroke:rgb(100%,0%,0%);stroke-opacity:1;stroke-miterlimit:10;" d="M 67.972656 130.90625 L 59.613281 118.179688 "/>
<path style=" stroke:none;fill-rule:nonzero;fill:rgb(100%,100%,100%);fill-opacity:1;" d="M 52.609375 109.214844 L 62.609375 109.214844 L 62.609375 123.214844 L 52.609375 123.214844 Z M 52.609375 109.214844 "/>
<g style="fill:rgb(100%,0%,0%);fill-opacity:1;">
  <use xlink:href="#glyph0-2" x="52.609375" y="120.353516"/>
</g>
<path style="fill:none;stroke-width:1.2;stroke-linecap:butt;stroke-linejoin:miter;stroke:rgb(0%,0%,0%);stroke-opacity:1;stroke-miterlimit:10;" d="M 123.402344 112.707031 L 153.800781 110.949219 "/>
<path style="fill:none;stroke-width:1.2;stroke-linecap:butt;stroke-linejoin:miter;stroke:rgb(0%,0%,0%);stroke-opacity:1;stroke-miterlimit:10;" d="M 153.800781 110.949219 L 170.519531 136.398438 "/>
<path style="fill:none;stroke-width:1.2;stroke-linecap:butt;stroke-linejoin:miter;stroke:rgb(0%,0%,0%);stroke-opacity:1;stroke-miterlimit:10;" d="M 161.460938 109.5625 L 174.835938 129.921875 "/>
<path style="fill:none;stroke-width:1.2;stroke-linecap:butt;stroke-linejoin:miter;stroke:rgb(0%,0%,0%);stroke-opacity:1;stroke-miterlimit:10;" d="M 167.480469 83.75 L 153.800781 110.949219 "/>
<path style="fill:none;stroke-width:1.2;stroke-linecap:butt;stroke-linejoin:miter;stroke:rgb(0%,0%,0%);stroke-opacity:1;stroke-miterlimit:10;" d="M 170.519531 136.398438 L 200.917969 134.644531 "/>
<path style="fill:none;stroke-width:1.2;stroke-linecap:butt;stroke-linejoin:miter;stroke:rgb(0%,0%,0%);stroke-opacity:1;stroke-miterlimit:10;" d="M 200.917969 134.644531 L 214.597656 107.441406 "/>
<path style="fill:none;stroke-width:1.2;stroke-linecap:butt;stroke-linejoin:miter;stroke:rgb(0%,0%,0%);stroke-opacity:1;stroke-miterlimit:10;" d="M 195.882812 128.707031 L 206.828125 106.945312 "/>
<path style="fill:none;stroke-width:1.2;stroke-linecap:butt;stroke-linejoin:miter;stroke:rgb(0%,0%,0%);stroke-opacity:1;stroke-miterlimit:10;" d="M 214.597656 107.441406 L 197.878906 81.996094 "/>
<path style="fill:none;stroke-width:1.2;stroke-linecap:butt;stroke-linejoin:miter;stroke:rgb(0%,0%,0%);stroke-opacity:1;stroke-miterlimit:10;" d="M 214.597656 107.441406 L 229.796875 106.566406 "/>
<path style="fill:none;stroke-width:1.2;stroke-linecap:butt;stroke-linejoin:miter;stroke:rgb(20%,80%,80%);stroke-opacity:1;stroke-miterlimit:10;" d="M 229.796875 106.566406 L 244.992188 105.6875 "/>
<path style="fill:none;stroke-width:1.2;stroke-linecap:butt;stroke-linejoin:miter;stroke:rgb(0%,0%,0%);stroke-opacity:1;stroke-miterlimit:10;" d="M 197.878906 81.996094 L 167.480469 83.75 "/>
<path style="fill:none;stroke-width:1.2;stroke-linecap:butt;stroke-linejoin:miter;stroke:rgb(0%,0%,0%);stroke-opacity:1;stroke-miterlimit:10;" d="M 195.25 89.324219 L 170.933594 90.726562 "/>
<path style=" stroke:none;fill-rule:nonzero;fill:rgb(100%,100%,100%);fill-opacity:1;" d="M 241.992188 98.6875 L 248.992188 98.6875 L 248.992188 112.6875 L 241.992188 112.6875 Z M 241.992188 98.6875 "/>
<g style="fill:rgb(20%,80%,80%);fill-opacity:1;">
  <use xlink:href="#glyph0-3" x="241.992188" y="109.826172"/>
</g>
<path style="fill:none;stroke-width:1.2;stroke-linecap:butt;stroke-linejoin:miter;stroke:rgb(0%,0%,100%);stroke-opacity:1;stroke-miterlimit:10;" d="M 203.957031 187.292969 L 212.3125 200.019531 "/>
<path style="fill:none;stroke-width:1.2;stroke-linecap:butt;stroke-linejoin:miter;stroke:rgb(0%,0%,0%);stroke-opacity:1;stroke-miterlimit:10;" d="M 212.3125 200.019531 L 220.671875 212.742188 "/>
<path style="fill:none;stroke-width:1.2;stroke-linecap:butt;stroke-linejoin:miter;stroke:rgb(0%,0%,0%);stroke-opacity:1;stroke-miterlimit:10;" d="M 217.632812 160.09375 L 210.792969 173.695312 "/>
<path style="fill:none;stroke-width:1.2;stroke-linecap:butt;stroke-linejoin:miter;stroke:rgb(0%,0%,100%);stroke-opacity:1;stroke-miterlimit:10;" d="M 210.792969 173.695312 L 203.957031 187.292969 "/>
<path style=" stroke:none;fill-rule:nonzero;fill:rgb(100%,100%,100%);fill-opacity:1;" d="M 199.957031 180.292969 L 208.957031 180.292969 L 208.957031 194.292969 L 199.957031 194.292969 Z M 199.957031 180.292969 "/>
<g style="fill:rgb(0%,0%,100%);fill-opacity:1;">
  <use xlink:href="#glyph0-1" x="199.957031" y="191.431641"/>
</g>
<path style="fill:none;stroke-width:1.2;stroke-linecap:butt;stroke-linejoin:miter;stroke:rgb(0%,0%,0%);stroke-opacity:1;stroke-miterlimit:10;" d="M 220.671875 212.742188 L 251.070312 210.988281 "/>
<path style="fill:none;stroke-width:1.2;stroke-linecap:butt;stroke-linejoin:miter;stroke:rgb(0%,0%,0%);stroke-opacity:1;stroke-miterlimit:10;" d="M 251.070312 210.988281 L 257.910156 197.386719 "/>
<path style="fill:none;stroke-width:1.2;stroke-linecap:butt;stroke-linejoin:miter;stroke:rgb(100%,0%,0%);stroke-opacity:1;stroke-miterlimit:10;" d="M 257.910156 197.386719 L 264.75 183.785156 "/>
<path style="fill:none;stroke-width:1.2;stroke-linecap:butt;stroke-linejoin:miter;stroke:rgb(100%,0%,0%);stroke-opacity:1;stroke-miterlimit:10;" d="M 264.75 183.785156 L 256.390625 171.0625 "/>
<path style="fill:none;stroke-width:1.2;stroke-linecap:butt;stroke-linejoin:miter;stroke:rgb(0%,0%,0%);stroke-opacity:1;stroke-miterlimit:10;" d="M 256.390625 171.0625 L 248.03125 158.339844 "/>
<path style=" stroke:none;fill-rule:nonzero;fill:rgb(100%,100%,100%);fill-opacity:1;" d="M 259.75 176.785156 L 269.75 176.785156 L 269.75 190.785156 L 259.75 190.785156 Z M 259.75 176.785156 "/>
<g style="fill:rgb(100%,0%,0%);fill-opacity:1;">
  <use xlink:href="#glyph0-2" x="259.75" y="187.923828"/>
</g>
<path style="fill:none;stroke-width:1.2;stroke-linecap:butt;stroke-linejoin:miter;stroke:rgb(0%,0%,0%);stroke-opacity:1;stroke-miterlimit:10;" d="M 248.03125 158.339844 L 217.632812 160.09375 "/>
</g>
</svg>

<svg xmlns="http://www.w3.org/2000/svg" xmlns:xlink="http://www.w3.org/1999/xlink" width="300pt" height="300pt" viewBox="0 0 300 300"><defs><symbol overflow="visible"><path d="M.594 2.125V-8.47h6V2.126zm.672-.672h4.671V-7.78h-4.67zm0 0"/></symbol><symbol overflow="visible" id="a"><path d="M1.172-8.75h1.594l3.89 7.313V-8.75h1.14V0H6.204L2.328-7.313V0H1.172zm0 0"/></symbol><symbol overflow="visible" id="b"><path d="M4.734-7.953c-.867 0-1.554.324-2.062.97-.5.635-.75 1.51-.75 2.624 0 1.094.25 1.965.75 2.61.508.637 1.195.953 2.062.953.852 0 1.532-.316 2.032-.953.507-.645.765-1.516.765-2.61 0-1.113-.257-1.988-.764-2.624-.5-.645-1.18-.97-2.032-.97zm0-.953c1.22 0 2.192.414 2.922 1.234.74.824 1.11 1.93 1.11 3.313 0 1.376-.37 2.477-1.11 3.298C6.926-.24 5.953.17 4.734.17c-1.23 0-2.214-.41-2.953-1.234C1.04-1.882.673-2.984.673-4.36c0-1.382.367-2.488 1.11-3.312.738-.82 1.722-1.234 2.952-1.234zm0 0"/></symbol><symbol overflow="visible" id="c"><path d="M1.172-8.75h5.03v1H2.36v2.578h3.468v1h-3.47V0H1.173zm0 0"/></symbol></defs><g><path fill="#fff" d="M0 0h300v300H0z"/><path d="M35.25 170.617l30.398-1.754M65.648 168.863l8.36 12.723" stroke-width="1.2" stroke="#000" stroke-miterlimit="10" fill="none"/><path d="M74.008 181.586l8.36 12.726" stroke-width="1.2" stroke="#00f" stroke-miterlimit="10" fill="none"/><path d="M73.31 167.477l6.682 10.175" stroke-width="1.2" stroke="#000" stroke-miterlimit="10" fill="none"/><path d="M79.992 177.652l6.688 10.18" stroke-width="1.2" stroke="#00f" stroke-miterlimit="10" fill="none"/><path d="M79.328 141.66l-13.68 27.203" stroke-width="1.2" stroke="#000" stroke-miterlimit="10" fill="none"/><path d="M82.367 194.313l15.195-.88" stroke-width="1.2" stroke="#00f" stroke-miterlimit="10" fill="none"/><path d="M97.563 193.434l15.2-.875" stroke-width="1.2" stroke="#000" stroke-miterlimit="10" fill="none"/><path d="M78.367 187.313h9v14h-9zm0 0" fill="#fff"/><use xlink:href="#a" x="78.367" y="198.451" fill="#00f"/><path d="M112.762 192.56l16.718 25.444M120.422 191.168l13.375 20.36M126.44 165.355l-13.678 27.204M129.48 218.004l15.2-.875" stroke-width="1.2" stroke="#000" stroke-miterlimit="10" fill="none"/><path d="M144.68 217.13l15.2-.88M159.88 216.25l6.84-13.602" stroke-width="1.2" stroke="#00f" stroke-miterlimit="10" fill="none"/><path d="M166.72 202.648l6.84-13.597" stroke-width="1.2" stroke="#000" stroke-miterlimit="10" fill="none"/><path d="M154.844 210.313l5.472-10.883" stroke-width="1.2" stroke="#00f" stroke-miterlimit="10" fill="none"/><path d="M160.316 199.43l5.473-10.88" stroke-width="1.2" stroke="#000" stroke-miterlimit="10" fill="none"/><path d="M155.88 209.25h9v14h-9zm0 0" fill="#fff"/><use xlink:href="#a" x="155.879" y="220.389" fill="#00f"/><path d="M173.56 189.05l-8.36-12.726" stroke-width="1.2" stroke="#000" stroke-miterlimit="10" fill="none"/><path d="M165.2 176.324l-8.36-12.722" stroke-width="1.2" stroke="#00f" stroke-miterlimit="10" fill="none"/><path d="M173.56 189.05l15.198-.878" stroke-width="1.2" stroke="#000" stroke-miterlimit="10" fill="none"/><path d="M188.758 188.172l15.2-.88M156.84 163.602l-15.2.875" stroke-width="1.2" stroke="#00f" stroke-miterlimit="10" fill="none"/><path d="M141.64 164.477l-15.2.878" stroke-width="1.2" stroke="#000" stroke-miterlimit="10" fill="none"/><path d="M154.21 170.93l-12.155.7" stroke-width="1.2" stroke="#00f" stroke-miterlimit="10" fill="none"/><path d="M142.055 171.63l-12.16.702" stroke-width="1.2" stroke="#000" stroke-miterlimit="10" fill="none"/><path d="M152.84 156.602h9v14h-9zm0 0" fill="#fff"/><use xlink:href="#a" x="152.84" y="167.74" fill="#00f"/><path d="M126.44 165.355l-8.358-12.722" stroke-width="1.2" stroke="#000" stroke-miterlimit="10" fill="none"/><path d="M118.082 152.633l-8.36-12.727M109.723 139.906l-15.196.88" stroke-width="1.2" stroke="#00f" stroke-miterlimit="10" fill="none"/><path d="M94.527 140.785l-15.2.875" stroke-width="1.2" stroke="#000" stroke-miterlimit="10" fill="none"/><path d="M109.723 139.906l6.84-13.6" stroke-width="1.2" stroke="#00f" stroke-miterlimit="10" fill="none"/><path d="M116.563 126.305l6.84-13.598" stroke-width="1.2" stroke="#000" stroke-miterlimit="10" fill="none"/><path d="M105.723 132.906h9v14h-9zm0 0" fill="#fff"/><use xlink:href="#a" x="105.723" y="144.045" fill="#00f"/><path d="M82.32 139.695l-8.36-12.722" stroke-width="1.2" stroke="#000" stroke-miterlimit="10" fill="none"/><path d="M73.96 126.973l-8.358-12.727" stroke-width="1.2" stroke="#f00" stroke-miterlimit="10" fill="none"/><path d="M76.332 143.63l-8.36-12.724" stroke-width="1.2" stroke="#000" stroke-miterlimit="10" fill="none"/><path d="M67.973 130.906l-8.36-12.726" stroke-width="1.2" stroke="#f00" stroke-miterlimit="10" fill="none"/><path d="M52.61 109.215h10v14h-10zm0 0" fill="#fff"/><use xlink:href="#b" x="52.609" y="120.354" fill="#f00"/><path d="M123.402 112.707l30.4-1.758M153.8 110.95l16.72 25.448M161.46 109.563l13.376 20.36M167.48 83.75l-13.68 27.2M170.52 136.398l30.398-1.753M200.918 134.645l13.68-27.204M195.883 128.707l10.945-21.762M214.598 107.44l-16.72-25.444M214.598 107.44l15.2-.874" stroke-width="1.2" stroke="#000" stroke-miterlimit="10" fill="none"/><path d="M229.797 106.566l15.195-.88" stroke-width="1.2" stroke="#3cc" stroke-miterlimit="10" fill="none"/><path d="M197.88 81.996l-30.4 1.754M195.25 89.324l-24.316 1.403" stroke-width="1.2" stroke="#000" stroke-miterlimit="10" fill="none"/><path d="M241.992 98.688h7v14h-7zm0 0" fill="#fff"/><use xlink:href="#c" x="241.992" y="109.826" fill="#3cc"/><path d="M203.957 187.293l8.356 12.727" stroke-width="1.2" stroke="#00f" stroke-miterlimit="10" fill="none"/><path d="M212.313 200.02l8.36 12.722M217.633 160.094l-6.84 13.6" stroke-width="1.2" stroke="#000" stroke-miterlimit="10" fill="none"/><path d="M210.793 173.695l-6.836 13.598" stroke-width="1.2" stroke="#00f" stroke-miterlimit="10" fill="none"/><path d="M199.957 180.293h9v14h-9zm0 0" fill="#fff"/><use xlink:href="#a" x="199.957" y="191.432" fill="#00f"/><path d="M220.672 212.742l30.398-1.754M251.07 210.988l6.84-13.6" stroke-width="1.2" stroke="#000" stroke-miterlimit="10" fill="none"/><path d="M257.91 197.387l6.84-13.602M264.75 183.785l-8.36-12.722" stroke-width="1.2" stroke="#f00" stroke-miterlimit="10" fill="none"/><path d="M256.39 171.063l-8.36-12.723" stroke-width="1.2" stroke="#000" stroke-miterlimit="10" fill="none"/><path d="M259.75 176.785h10v14h-10zm0 0" fill="#fff"/><use xlink:href="#b" x="259.75" y="187.924" fill="#f00"/><path d="M248.03 158.34l-30.397 1.754" stroke-width="1.2" stroke="#000" stroke-miterlimit="10" fill="none"/></g></svg>
